public/assets/img/material-icons/image_search.svg

<svg height="24" viewBox="0 0 24 24" width="24" xmlns="http://www.w3.org/2000/svg"><path d="m18 13v7h-14v-14h5.02c.05-.71.22-1.38.48-2h-5.5c-1.1 0-2 .9-2 2v14c0 1.1.9 2 2 2h14c1.1 0 2-.9 2-2v-5zm-1.5 5h-11l2.75-3.53 1.96 2.36 2.75-3.54zm2.8-9.11c.44-.7.7-1.51.7-2.39 0-2.49-2.01-4.5-4.5-4.5s-4.5 2.01-4.5 4.5 2.01 4.5 4.49 4.5c.88 0 1.7-.26 2.39-.7l3.12 3.12 1.42-1.42zm-3.8.11a2.5 2.5 0 0 1 0-5 2.5 2.5 0 0 1 0 5z"/></svg>

<svg xmlns="http://www.w3.org/2000/svg" width="24" height="24" viewBox="0 0 24 24"><path d="M18 13v7H4V6h5.02c.05-.71.22-1.38.48-2H4c-1.1 0-2 .9-2 2v14c0 1.1.9 2 2 2h14c1.1 0 2-.9 2-2v-5l-2-2zm-1.5 5h-11l2.75-3.53 1.96 2.36 2.75-3.54zm2.8-9.11c.44-.7.7-1.51.7-2.39C20 4.01 17.99 2 15.5 2S11 4.01 11 6.5s2.01 4.5 4.49 4.5c.88 0 1.7-.26 2.39-.7L21 13.42 22.42 12 19.3 8.89zM15.5 9a2.5 2.5 0 0 1 0-5 2.5 2.5 0 0 1 0 5z"/></svg>
